Images/skills-img-6.svg

<svg width="70" height="100" viewBox="0 0 70 100" fill="none" xmlns="http://www.w3.org/2000/svg">
<g clip-path="url(#clip0_1_767)">
<path d="M17.3753 100C26.9632 100 34.7447 92.5335 34.7447 83.3335V66.6668H17.3753C7.78742 66.6668 0.00592041 74.1335 0.00592041 83.3335C0.00592041 92.5335 7.78742 100 17.3753 100Z" fill="#0ACF83"/>
<path d="M0.00592041 49.9999C0.00592041 40.7999 7.78742 33.3332 17.3753 33.3332H34.7447V66.6665H17.3753C7.78742 66.6665 0.00592041 59.1999 0.00592041 49.9999Z" fill="#A259FF"/>
<path d="M0.00390625 16.6667C0.00390625 7.46667 7.7854 7.62939e-06 17.3733 7.62939e-06H34.7427V33.3333H17.3733C7.7854 33.3333 0.00390625 25.8667 0.00390625 16.6667Z" fill="#F24E1E"/>
<path d="M34.7458 7.62939e-06H52.1152C61.7031 7.62939e-06 69.4846 7.46667 69.4846 16.6667C69.4846 25.8667 61.7031 33.3333 52.1152 33.3333H34.7458V7.62939e-06Z" fill="#FF7262"/>
<path d="M69.4846 49.9999C69.4846 59.1999 61.7031 66.6665 52.1152 66.6665C42.5273 66.6665 34.7458 59.1999 34.7458 49.9999C34.7458 40.7999 42.5273 33.3332 52.1152 33.3332C61.7031 33.3332 69.4846 40.7999 69.4846 49.9999Z" fill="#1ABCFE"/>
</g>
<defs>
<clipPath id="clip0_1_767">
<rect width="69.4915" height="100" fill="white"/>
</clipPath>
</defs>
</svg>

<svg xmlns="http://www.w3.org/2000/svg" width="70" height="100" fill="none" xmlns:v="https://vecta.io/nano"><g clip-path="url(#A)"><path d="M17.375 100c9.588 0 17.369-7.466 17.369-16.666V66.667H17.375C7.787 66.667.006 74.134.006 83.334S7.787 100 17.375 100z" fill="#0acf83"/><path d="M.006 50c0-9.2 7.781-16.667 17.369-16.667h17.369v33.333H17.375C7.787 66.667.006 59.2.006 50z" fill="#a259ff"/><path d="M.004 16.667C.004 7.467 7.785 0 17.373 0h17.369v33.333H17.373C7.785 33.333.004 25.867.004 16.667z" fill="#f24e1e"/><path d="M34.746 0h17.369c9.588 0 17.369 7.467 17.369 16.667s-7.782 16.667-17.369 16.667H34.746V0z" fill="#ff7262"/><path d="M69.485 50c0 9.2-7.782 16.667-17.369 16.667S34.746 59.2 34.746 50s7.781-16.667 17.369-16.667S69.485 40.8 69.485 50z" fill="#1abcfe"/></g><defs><clipPath id="A"><path fill="#fff" d="M0 0h69.492v100H0z"/></clipPath></defs></svg>
